X:71
T:RVW2/2/71 Poacher's Song
C:Sung by Mrs.Humphreys, Ingrave, Essex, 25 April 1904
L:1/8
Q:1/4=120
M:6/8
I:linebreak $
K:C
"^(Editorial suggestion)  " d | c2 B G2 G | (B2 c) d2 d | c2 B G2 G | G3- G2 G | B2 c d2 e |$ 
w: When|I was bound ap-|pren- * tice in|famed Nor- thamp- ton-|shire _ I|served my mas- ter|
f3 g2 f | e2 d"^(a)" (cde) | d3- d2 G | B2 c d2 e |$ f3 g2 f | e2 d (cd)e | d3- d d d | 
w: tru- ly for|se- ven long * *|year. * Then|I took up with|poach- ing as|you shall quick- * ly|hear * Oh it's|
c2 B GGG |$ B2 c ddd | c2 B G2 G | G3 z2 ||$ d | c2 B G2 G | (B2 c) d2 d | c2 B G2 G | G3- G2 G | 
w: my de- light on a|shi- ny night in the|sea- son of the|year.||||||
B2 c d2 e |$ f3 g2 f | e2 d"^(a) var." (c2 e) | d3- d2 G | B2 c d2 e |$ f3 g2 f | e2 d (cd)e | 
w: |||||||
d3- d d d | c2 B GGG |$ B2 c ddd | c2 B G2 G | G3 z2 |] 
w: |||||



